X: 4995
T: Brendan's
R: reel
M: 4/4
K: Edorian
GEE2 dBBA|B2ED EFGA|BEEE d3e|dAAA FAAA|
GEE2 dBBA|B2ED EFGA|B2dB AFDF|FEED EEEF:|
E2GB eBB2|gBB2 eBB2|D2FA dfec|dBAF FEED|
E2GB eBB2|g3B eBB2|D2FA dBAF|FEED E2EF:|

